X: 1
T: Girls Of The Town
M: 6/8
L: 1/8
R: jig
K: Amaj
|:B|AFE A2B|cff ecB|AFE A2B|c3 BAF|
AFE A2B|cff ecB|AFE A2B|cAA A2:|
|:c/e/|~f3 ~f3|faf fec|ece e2c|faf fec|
~f3 f2g|agf ecB|AFE A2B|cAA A2:|
